imgs/platform-1.svg

<svg width="22" height="20" viewBox="0 0 22 20" fill="none" xmlns="http://www.w3.org/2000/svg">
<path d="M0.6875 12.2387C0.869836 12.2387 1.0447 12.3111 1.17364 12.4401C1.30257 12.569 1.375 12.7439 1.375 12.9262V16.3637C1.375 16.7284 1.51987 17.0781 1.77773 17.336C2.03559 17.5938 2.38533 17.7387 2.75 17.7387H19.25C19.6147 17.7387 19.9644 17.5938 20.2223 17.336C20.4801 17.0781 20.625 16.7284 20.625 16.3637V12.9262C20.625 12.7439 20.6974 12.569 20.8264 12.4401C20.9553 12.3111 21.1302 12.2387 21.3125 12.2387C21.4948 12.2387 21.6697 12.3111 21.7986 12.4401C21.9276 12.569 22 12.7439 22 12.9262V16.3637C22 17.0931 21.7103 17.7925 21.1945 18.3083C20.6788 18.824 19.9793 19.1137 19.25 19.1137H2.75C2.02065 19.1137 1.32118 18.824 0.805456 18.3083C0.289731 17.7925 0 17.0931 0 16.3637V12.9262C0 12.7439 0.0724328 12.569 0.201364 12.4401C0.330295 12.3111 0.505164 12.2387 0.6875 12.2387Z" fill="#006AFF"/>
<path d="M10.5131 0.201979C10.577 0.137955 10.6529 0.0871581 10.7364 0.0524992C10.8199 0.0178403 10.9095 0 10.9999 0C11.0903 0 11.1799 0.0178403 11.2634 0.0524992C11.3469 0.0871581 11.4228 0.137955 11.4866 0.201979L15.6116 4.32698C15.7407 4.45607 15.8133 4.63116 15.8133 4.81373C15.8133 4.9963 15.7407 5.17138 15.6116 5.30048C15.4825 5.42957 15.3075 5.5021 15.1249 5.5021C14.9423 5.5021 14.7672 5.42957 14.6381 5.30048L11.6874 2.34835V14.4387C11.6874 14.6211 11.615 14.7959 11.486 14.9249C11.3571 15.0538 11.1822 15.1262 10.9999 15.1262C10.8176 15.1262 10.6427 15.0538 10.5138 14.9249C10.3848 14.7959 10.3124 14.6211 10.3124 14.4387V2.34835L7.36164 5.30048C7.29772 5.3644 7.22184 5.4151 7.13832 5.4497C7.0548 5.48429 6.96529 5.5021 6.87489 5.5021C6.78449 5.5021 6.69498 5.48429 6.61146 5.4497C6.52795 5.4151 6.45206 5.3644 6.38814 5.30048C6.32422 5.23656 6.27352 5.16067 6.23892 5.07716C6.20433 4.99364 6.18652 4.90413 6.18652 4.81373C6.18652 4.72333 6.20433 4.63382 6.23892 4.5503C6.27352 4.46678 6.32422 4.3909 6.38814 4.32698L10.5131 0.201979Z" fill="#006AFF"/>
</svg>

<svg width="22" height="20" fill="none" xmlns="http://www.w3.org/2000/svg"><path d="M.688 12.239a.687.687 0 0 1 .687.687v3.438a1.375 1.375 0 0 0 1.375 1.375h16.5a1.375 1.375 0 0 0 1.375-1.375v-3.438a.687.687 0 1 1 1.375 0v3.438a2.75 2.75 0 0 1-2.75 2.75H2.75A2.75 2.75 0 0 1 0 16.364v-3.438a.687.687 0 0 1 .688-.687Z" fill="#006AFF"/><path d="M10.513.202a.688.688 0 0 1 .974 0l4.125 4.125a.688.688 0 1 1-.974.973l-2.95-2.952v12.09a.687.687 0 1 1-1.376 0V2.349L7.362 5.3a.688.688 0 0 1-.974-.973L10.513.202Z" fill="#006AFF"/></svg>
